X:1
T:Title
%%score 1 2 3 4
L:1/8
M:4/4
K:F
V:1 treble nm="Church Organ, Church Organ"
V:2 treble nm="French Horn, French Horn"
V:3 bass nm="Trombone, Trombone"
V:4 bass nm="Tuba, Tuba"
V:1
 A2 A2 A2 G2 | F4 C4 | c2 c2 c2 B2 | A6 z2 | d2 d2 d2 c2 | c4 B4 | A2 G2 G2 D2 | A2 G2 E2 C2 | %8
w: By~I.~H.~Meredith * * *||||||||
 A2 A2 A2 G2 | F4 C4 | c2 c2 c2 B2 | A6 z2 | d2 A2 B2 G2 | c2 G2 A2 F2 | G2 d2 c2 E2 | F6 C2 | %16
w: ||||||||
 c4 c4 | c6 Bc | d4 d4 | d6 df | f2 e2 e2 B2 | d6 de | e2 d2 d2 A2 | c6 C2 | c4 c4 | c6 Bc | %26
w: ||||||||||
 d4 d4 | d6 de | f2 f2 e2 d2 | d2 c2 B2 A2 | A2 G2 A2 G2 | F6 z2 |] %32
w: ||||||
V:2
 [CA]2 [A,C]2 [B,D]2 [B,CE]2 | [A,C]4 A,4 | [CA]2 [CF]2 [CE]2 [CG]2 | [CF]6 z2 | %4
w: Joy~ is~ in~ our~|mes sage!~|Peal~ the~ Christ mas~|Bells!~|
 [DF]2 [DF]2 [D^F]2 [DA]2 | [DG]4 [DG]4 | [=B,F]2 [B,F]2 [B,F]2[K:bass] [B,D]2 | %7
w: Joy,~ great~ joy~ re|echo es~|From~ the~ glo ry~|
 [B,E]2 [B,E]2 B,2 B,2 | [CF]2 [A,C]2 [B,D]2 [B,CE]2 | [A,C]4 A,4 | [CA]2 [CF]2 [CE]2 [CG]2 | %11
w: In~ the~ sto ry~|Which~ our~ chimes~ are~|tel ling,~|As~ the~ mu sic~|
 [CF]6 z2 | [DF]2 [D^F]2 [DG]2 [B,D]2 | [CG]2 [CE]2 [CF]2 C2 | D2 F2 F2 C2 | [A,C]6 z2 | %16
w: swells;~|Ring ing,~ ring ing,~|new~ joy~ bring ing,~|Peal~ the~ Christ mas~|bells.~|
 [FA]4 [EB]4 | [FA]6 z2 | [FB]4 [^Fc]4 | [GB]6 Bd | d2 c2 c2 G2 | B6 BB | A2 A2 A2 F2 | A6 z2 | %24
w: ev 'ry~|land~|an them~|grand,~ From~ the~|nor thern~ i cy~|tow'rs~ To~ the~|sun set~ land~ of~|flow'rs;~|
 [FA]4 [EB]4 | [FA]6 z2 | [FB]4 [^Fc]4 | [GB]6 z2 | F2 F2 F2 F2 | F2 F2 F2 F2 | F2 F2 E2 E2 | %31
w: ev 'ry~|sea,~|bond~ and~|free,~|peat~ the~ song~ of~|an gel~ throng;~ The~|Sa viour~ now~ is~|
 F6 z2 |] %32
w: ours!~|
V:3
 F,2 C,2 G,2 C,2 | F,2 C,2 F,2 C,2 | F,2 A,2 G,2 C,2 | F,2 C,2 F,2 A,2 | B,2 B,2 A,2 D,2 | %5
 G,2 D,2 G,2 D,2 | G,,4 G,,4 | C,4 C,2 E,2 | F,2 C,2 G,2 C,2 | F,2 C,2 F,2 C,2 | F,2 A,2 G,2 C,2 | %11
 F,2 C,2 F,2 A,2 | B,2 D,2 G,2 G,F, | E,2 C,2 F,2 A,2 | B,2 _A,2 =A,2 B,2 | F,2 C,2 F,,2 z2 | %16
 F,2 A,2 G,2 B,2 | A,2 G,2 F,2 z2 | B,2 D2 C2 A,2 | B,2 A,2 G,2 z2 | C,2 E2 G,2 E2 | C,2 E2 E2 E2 | %22
 F,2 F2 C,2 C2 | F,2[K:treble] F2 F2 z2 | F,2 A,2 G,2 B,2 | A,2 G,2 F,2 z2 | B,2 D2 C2 A,2 | %27
 B,2 A,2 G,2 z2 | _A,2 A,2 A,2 A,2 | A,2 A,2 D2 C2 | =B,2 B,2 C2 _B,2 | A,6 z2 |] %32
V:4
 F,,2 C,,2 G,,2 C,,2 | F,,2 C,,2 F,,2 C,,2 | F,,2 A,,2 G,,2 C,,2 | F,,2 C,,2 F,,2 A,,2 | %4
 B,,2 B,,2 A,,2 D,,2 | G,,2 D,,2 G,,2 D,,2 | G,,,4 G,,,4 | C,,4 C,,2 E,,2 | F,,2 C,,2 G,,2 C,,2 | %9
 F,,2 C,,2 F,,2 C,,2 | F,,2 A,,2 G,,2 C,,2 | F,,2 C,,2 F,,2 A,,2 | B,,2 D,,2 G,,2 G,,F,, | %13
 E,,2 C,,2 F,,2 A,,2 | B,,2 =B,,2 C,2 C,2 | F,2 C,2 F,,2 z2 | F,,2 A,,2 G,,2 B,,2 | %17
 A,,2 G,,2 F,,2 z2 | B,,2 D,2 C,2 A,,2 | B,,2 A,,2 G,,2 z2 | C,2 [B,C]2 G,2 [B,C]2 | %21
 C,2 [B,C]2 [B,C]2 [B,C]2 | F,2 [A,C]2 C,2 A,2 | F,2 [A,C]2 [A,C]2 z2 | F,,2 G,,2 F,,2 B,,2 | %25
 A,,2 G,,2 F,,2 z2 | B,,2 D,2 C,2 A,,2 | B,,2 A,,2 G,,2 z2 | =B,,2 B,,2 B,,2 B,,2 | %29
 C,2 C,2 C,2 C,2 | D,2 G,,2 C,2 C,2 | F,6 z2 |] %32

